X: 1
T: Rambling Idiot, The
M: 6/8
L: 1/8
R: jig
K: Gmaj
FE|:DGG GFG|EGE DEF|GFG GAB|cBc AFE|
DGG GFG|EGE DEF|GFG ABc|1BAF GFE:|2BAF GBc||
dBB gBB|cBc ABc|d^cd def|gag fe=c|
dBB gBB|cBc ABc|d^cd efa|gfe dBA|
GFG EGE|DB,G, G,B,D|EGF GAB|cBA GFD|
CGC B,GB,|A,B,A, G,B,D|GFG ABc|1BAF GFE &quot;da capo&quot;:||2BAF G3||
